svg/fluentui-system-icons/ic_fluent_save_28_regular.svg

<svg width="28" height="28" viewBox="0 0 28 28" fill="none" xmlns="http://www.w3.org/2000/svg">
<path d="M6.25 4.5C5.2835 4.5 4.5 5.2835 4.5 6.25V21.75C4.5 22.6316 5.15193 23.361 6 23.4823V16.25C6 15.0074 7.00736 14 8.25 14H19.75C20.9926 14 22 15.0074 22 16.25V23.4823C22.8481 23.361 23.5 22.6316 23.5 21.75V8.78553C23.5 8.3214 23.3156 7.87629 22.9874 7.5481L20.4519 5.01256C20.1237 4.68437 19.6786 4.5 19.2145 4.5H19V8.75C19 9.99264 17.9926 11 16.75 11H10.25C9.00736 11 8 9.99264 8 8.75V4.5H6.25ZM9.5 4.5V8.75C9.5 9.16421 9.83579 9.5 10.25 9.5H16.75C17.1642 9.5 17.5 9.16421 17.5 8.75V4.5H9.5ZM20.5 23.5V16.25C20.5 15.8358 20.1642 15.5 19.75 15.5H8.25C7.83579 15.5 7.5 15.8358 7.5 16.25V23.5H20.5ZM3 6.25C3 4.45507 4.45507 3 6.25 3H19.2145C20.0764 3 20.9031 3.34241 21.5126 3.9519L24.0481 6.48744C24.6576 7.09693 25 7.92358 25 8.78553V21.75C25 23.5449 23.5449 25 21.75 25H6.25C4.45507 25 3 23.5449 3 21.75V6.25Z" fill="#212121"/>
</svg>

<svg xmlns="http://www.w3.org/2000/svg" width="28" height="28"><path d="M6.25 4.5A1.75 1.75 0 0 0 4.5 6.25v15.5A1.75 1.75 0 0 0 6 23.482V16.25A2.25 2.25 0 0 1 8.25 14h11.5A2.25 2.25 0 0 1 22 16.25v7.232a1.75 1.75 0 0 0 1.5-1.732V8.786c0-.465-.184-.91-.513-1.238l-2.535-2.535a1.75 1.75 0 0 0-1.238-.513H19v4.25A2.25 2.25 0 0 1 16.75 11h-6.5A2.25 2.25 0 0 1 8 8.75V4.5H6.25Zm3.25 0v4.25c0 .414.336.75.75.75h6.5a.75.75 0 0 0 .75-.75V4.5h-8Zm11 19v-7.25a.75.75 0 0 0-.75-.75H8.25a.75.75 0 0 0-.75.75v7.25h13ZM3 6.25A3.25 3.25 0 0 1 6.25 3h12.965a3.25 3.25 0 0 1 2.298.952l2.535 2.535c.61.61.952 1.437.952 2.299V21.75A3.25 3.25 0 0 1 21.75 25H6.25A3.25 3.25 0 0 1 3 21.75V6.25Z"/></svg>
